X: 34051
T: Reel De L'aveugle
R: reel
M: 4/4
K: Dmajor
|fdd/d/d edBd|Adfa bafd|ceab c'bag|fad'e 'f'd'ag|
f~ffd edBd|Adfa bafd|ceab c'baf|dd'af dbag|
fdd/d/d edBd|Adfa bafd|ceab c'bag|fad'e' f'd'ag|
f~ffd edBd|Adfa bafd|ceab c'baf|dd'af dzd'e'|
f'd'b/a/f d'afa|ba^gb e'd'c'b|ac'd'e' ~f'f'g'f'|f'e'^d'f' e'a'_a'g'|
f'd'af d'afa|ba^gb e'd'c'b|af'e'd' c'age|dd'af d2d'e'|
f'd'af d'afa|~bb^gb e'd'c'b|ac'd'e' ~f'f'g'f'|f'e'^d'f' e'a'_a'g'|
f'd'af d'afa|ab^gb e'd'c'b|af'e'd' c'age|dd'af d2z2|

